X: 4567
T: Both Meat And Drink
R: jig
M: 6/8
K: Gmajor
|:DGB d^cd|edB dcA|GBd gfg|bag faf|
geg fdf|ece gfe|fdf agf|gdB cAF:|
|:G2 g gbg|dBG GBd|=fef fcf|ag=f ag^f|
gfg bag|faf gdB|cAG FGA|1 AGF GBd:|2 AGF GFE||

